public/images/white-logo.svg

<svg width="137" height="15" viewBox="0 0 137 15" fill="none" xmlns="http://www.w3.org/2000/svg">
  <path d="M7.85095 12.981C10.8889 11.5115 12.9068 9.86341 13.9349 8.17049C14.8054 6.73697 14.9138 5.33922 14.3672 4.18935C13.8709 3.14528 12.8626 2.39978 11.7011 2.20769C10.4614 2.00266 9.19979 2.44083 8.19956 3.52596L7.85095 3.90417L7.50233 3.52596C6.50211 2.44083 5.24048 2.00266 4.00077 2.20769C2.83931 2.39978 1.83099 3.14528 1.33469 4.18935C0.788094 5.33922 0.8965 6.73697 1.76704 8.17049C2.79511 9.86341 4.81298 11.5115 7.85095 12.981Z" stroke="white" stroke-width="1.13919" stroke-linecap="round" stroke-linejoin="round"/>
  <path d="M7.54162 8.85085L6.71512 9.27553C6.63065 9.31893 6.52617 9.28722 6.48175 9.2047C6.46405 9.17183 6.45794 9.13418 6.46437 9.09758L6.62229 8.19768C6.65925 7.9871 6.5878 7.77224 6.43123 7.62307L5.76224 6.98574C5.69392 6.92065 5.69254 6.81377 5.75917 6.74701C5.78569 6.72044 5.82043 6.70315 5.85803 6.69781L6.78227 6.56655C6.99877 6.5358 7.18591 6.40294 7.2827 6.21126L7.69602 5.39275C7.73825 5.30914 7.84186 5.27479 7.92745 5.31604C7.96154 5.33248 7.98914 5.35944 8.00596 5.39275L8.41928 6.21126C8.51607 6.40294 8.70322 6.5358 8.91971 6.56655L9.84396 6.69781C9.9384 6.71122 10.0038 6.79689 9.99011 6.88916C9.98464 6.92589 9.96694 6.95983 9.93974 6.98574L9.27075 7.62307C9.11418 7.77224 9.04274 7.9871 9.07969 8.19768L9.23762 9.09758C9.25375 9.18948 9.19056 9.27675 9.0965 9.29251C9.05904 9.29878 9.02051 9.29282 8.98687 9.27553L8.16036 8.85085C7.96669 8.75134 7.73529 8.75134 7.54162 8.85085Z" fill="white"/>
  <path d="M29.5112 6.97125H33.8875C33.8875 7.42125 33.8687 7.83 33.8312 8.1975C33.7937 8.565 33.7187 8.90625 33.6062 9.22125C33.4487 9.66375 33.235 10.0574 32.965 10.4024C32.695 10.7399 32.3762 11.025 32.0087 11.2575C31.6487 11.4825 31.2512 11.655 30.8162 11.7751C30.3812 11.8951 29.9237 11.9551 29.4437 11.9551C28.7837 11.9551 28.18 11.8462 27.6325 11.6287C27.0925 11.4113 26.6275 11.1075 26.2375 10.7175C25.8475 10.32 25.5437 9.84745 25.3262 9.3C25.1087 8.745 25 8.13375 25 7.46625C25 6.80625 25.105 6.2025 25.315 5.655C25.5325 5.1 25.8362 4.6275 26.2262 4.2375C26.6237 3.8475 27.1 3.54375 27.655 3.32625C28.21 3.10875 28.8287 3 29.5112 3C30.3962 3 31.1725 3.19125 31.84 3.57375C32.5075 3.95625 33.0362 4.54875 33.4262 5.35125L31.3337 6.2175C31.1387 5.7525 30.8837 5.41875 30.5687 5.21625C30.2612 5.01375 29.9087 4.9125 29.5112 4.9125C29.1812 4.9125 28.8812 4.97625 28.6112 5.10375C28.3412 5.22375 28.1087 5.4 27.9137 5.6325C27.7262 5.8575 27.5762 6.13125 27.4637 6.45375C27.3587 6.77625 27.3062 7.13625 27.3062 7.53375C27.3062 7.89375 27.3512 8.2275 27.4412 8.535C27.5387 8.8425 27.6812 9.10875 27.8687 9.33375C28.0562 9.55875 28.2887 9.73495 28.5662 9.86245C28.8437 9.98245 29.1662 10.0424 29.5337 10.0424C29.7512 10.0424 29.9612 10.0199 30.1637 9.97495C30.3662 9.92245 30.5462 9.84375 30.7037 9.73875C30.8687 9.62625 31.0037 9.48375 31.1087 9.31125C31.2137 9.13875 31.285 8.92875 31.3225 8.68125H29.5112V6.97125ZM37.7674 7.4775C37.7674 7.815 37.8311 8.12625 37.9586 8.41125C38.0861 8.69625 38.2586 8.94375 38.4761 9.15375C38.6936 9.36375 38.9449 9.52875 39.2299 9.64875C39.5224 9.76125 39.8299 9.81745 40.1524 9.81745C40.4749 9.81745 40.7786 9.76125 41.0636 9.64875C41.3561 9.52875 41.6111 9.36375 41.8286 9.15375C42.0536 8.94375 42.2299 8.69625 42.3574 8.41125C42.4849 8.12625 42.5486 7.815 42.5486 7.4775C42.5486 7.14 42.4849 6.82875 42.3574 6.54375C42.2299 6.25875 42.0536 6.01125 41.8286 5.80125C41.6111 5.59125 41.3561 5.43 41.0636 5.3175C40.7786 5.1975 40.4749 5.1375 40.1524 5.1375C39.8299 5.1375 39.5224 5.1975 39.2299 5.3175C38.9449 5.43 38.6936 5.59125 38.4761 5.80125C38.2586 6.01125 38.0861 6.25875 37.9586 6.54375C37.8311 6.82875 37.7674 7.14 37.7674 7.4775ZM35.4611 7.4775C35.4611 6.8475 35.5774 6.2625 35.8099 5.7225C36.0424 5.175 36.3649 4.69875 36.7774 4.29375C37.1899 3.88875 37.6811 3.57375 38.2511 3.34875C38.8286 3.11625 39.4624 3 40.1524 3C40.8349 3 41.4649 3.11625 42.0424 3.34875C42.6199 3.57375 43.1149 3.88875 43.5274 4.29375C43.9474 4.69875 44.2736 5.175 44.5061 5.7225C44.7386 6.2625 44.8549 6.8475 44.8549 7.4775C44.8549 8.1075 44.7386 8.69625 44.5061 9.24375C44.2736 9.78375 43.9474 10.2562 43.5274 10.6613C43.1149 11.0662 42.6199 11.3849 42.0424 11.6174C41.4649 11.8425 40.8349 11.9551 40.1524 11.9551C39.4624 11.9551 38.8286 11.8425 38.2511 11.6174C37.6811 11.3849 37.1899 11.0662 36.7774 10.6613C36.3649 10.2562 36.0424 9.78375 35.8099 9.24375C35.5774 8.69625 35.4611 8.1075 35.4611 7.4775ZM48.734 7.4775C48.734 7.815 48.7977 8.12625 48.9252 8.41125C49.0527 8.69625 49.2252 8.94375 49.4427 9.15375C49.6602 9.36375 49.9115 9.52875 50.1965 9.64875C50.489 9.76125 50.7965 9.81745 51.119 9.81745C51.4415 9.81745 51.7452 9.76125 52.0302 9.64875C52.3227 9.52875 52.5777 9.36375 52.7952 9.15375C53.0202 8.94375 53.1965 8.69625 53.324 8.41125C53.4515 8.12625 53.5152 7.815 53.5152 7.4775C53.5152 7.14 53.4515 6.82875 53.324 6.54375C53.1965 6.25875 53.0202 6.01125 52.7952 5.80125C52.5777 5.59125 52.3227 5.43 52.0302 5.3175C51.7452 5.1975 51.4415 5.1375 51.119 5.1375C50.7965 5.1375 50.489 5.1975 50.1965 5.3175C49.9115 5.43 49.6602 5.59125 49.4427 5.80125C49.2252 6.01125 49.0527 6.25875 48.9252 6.54375C48.7977 6.82875 48.734 7.14 48.734 7.4775ZM46.4277 7.4775C46.4277 6.8475 46.544 6.2625 46.7765 5.7225C47.009 5.175 47.3315 4.69875 47.744 4.29375C48.1565 3.88875 48.6477 3.57375 49.2177 3.34875C49.7952 3.11625 50.429 3 51.119 3C51.8015 3 52.4315 3.11625 53.009 3.34875C53.5865 3.57375 54.0815 3.88875 54.494 4.29375C54.914 4.69875 55.2402 5.175 55.4727 5.7225C55.7052 6.2625 55.8215 6.8475 55.8215 7.4775C55.8215 8.1075 55.7052 8.69625 55.4727 9.24375C55.2402 9.78375 54.914 10.2562 54.494 10.6613C54.0815 11.0662 53.5865 11.3849 53.009 11.6174C52.4315 11.8425 51.8015 11.9551 51.119 11.9551C50.429 11.9551 49.7952 11.8425 49.2177 11.6174C48.6477 11.3849 48.1565 11.0662 47.744 10.6613C47.3315 10.2562 47.009 9.78375 46.7765 9.24375C46.544 8.69625 46.4277 8.1075 46.4277 7.4775ZM59.9818 9.85125H60.488C60.8705 9.85125 61.2118 9.79125 61.5118 9.67125C61.8118 9.55125 62.063 9.38625 62.2655 9.17625C62.4755 8.96625 62.633 8.71875 62.738 8.43375C62.8505 8.14125 62.9068 7.8225 62.9068 7.4775C62.9068 7.14 62.8505 6.825 62.738 6.5325C62.6255 6.24 62.4643 5.98875 62.2543 5.77875C62.0518 5.56875 61.8005 5.40375 61.5005 5.28375C61.2005 5.16375 60.863 5.10375 60.488 5.10375H59.9818V9.85125ZM57.7768 3.23625H61.0393C61.6168 3.23625 62.1568 3.3525 62.6593 3.585C63.1693 3.8175 63.6118 4.12875 63.9868 4.51875C64.3693 4.90125 64.6693 5.35125 64.8868 5.86875C65.1043 6.37875 65.213 6.915 65.213 7.4775C65.213 8.0325 65.1043 8.56875 64.8868 9.08625C64.6768 9.59625 64.3805 10.0462 63.998 10.4362C63.623 10.8262 63.1805 11.1375 62.6705 11.37C62.168 11.6025 61.6243 11.7188 61.0393 11.7188H57.7768V3.23625ZM73.774 7.12875H74.5052C75.3152 7.12875 75.7206 6.77625 75.7206 6.07125C75.7206 5.36625 75.3152 5.01375 74.5052 5.01375H73.774V7.12875ZM73.774 11.7188H71.569V3.23625H75.079C76.0316 3.23625 76.7586 3.48375 77.2616 3.97875C77.7716 4.47375 78.0266 5.17125 78.0266 6.07125C78.0266 6.97125 77.7716 7.66875 77.2616 8.16375C76.7586 8.65875 76.0316 8.90625 75.079 8.90625H73.774V11.7188ZM83.8956 8.56875L82.9056 5.745L81.9156 8.56875H83.8956ZM84.4806 10.245H81.3306L80.8246 11.7188H78.4736L81.7026 3.23625H84.1096L87.3386 11.7188H84.9876L84.4806 10.245ZM91.0706 7.0275H91.4876C91.9226 7.0275 92.2556 6.9375 92.4886 6.7575C92.7206 6.5775 92.8376 6.31875 92.8376 5.98125C92.8376 5.64375 92.7206 5.385 92.4886 5.205C92.2556 5.025 91.9226 4.935 91.4876 4.935H91.0706V7.0275ZM95.9196 11.7188H93.1746L91.0706 8.45625V11.7188H88.8656V3.23625H92.2976C92.7696 3.23625 93.1826 3.3075 93.5346 3.45C93.8876 3.585 94.1756 3.7725 94.4006 4.0125C94.6336 4.2525 94.8056 4.53 94.9186 4.845C95.0386 5.16 95.0986 5.4975 95.0986 5.8575C95.0986 6.5025 94.9406 7.0275 94.6256 7.4325C94.3186 7.83 93.8606 8.1 93.2536 8.2425L95.9196 11.7188ZM100.633 5.10375V11.7188H98.4276V5.10375H96.6166V3.23625H102.445V5.10375H100.633ZM106.585 7.64625L103.491 3.23625H106.123L107.698 5.55375L109.262 3.23625H111.895L108.79 7.64625V11.7188H106.585V7.64625Z" fill="white"/>
</svg>

<svg width="137" height="15" fill="none" xmlns="http://www.w3.org/2000/svg"><path d="M7.851 12.981c3.038-1.47 5.056-3.118 6.084-4.81.87-1.434.979-2.832.432-3.982-.496-1.044-1.504-1.79-2.666-1.981-1.24-.205-2.501.233-3.501 1.318l-.349.378-.349-.378c-1-1.085-2.262-1.523-3.501-1.318-1.162.192-2.17.937-2.666 1.981-.547 1.15-.439 2.548.432 3.981 1.028 1.693 3.046 3.341 6.084 4.811z" stroke="#fff" stroke-width="1.139" stroke-linecap="round" stroke-linejoin="round"/><path d="M7.542 8.85l-.827.426a.175.175 0 0 1-.233-.071.165.165 0 0 1-.018-.107l.158-.9a.64.64 0 0 0-.19-.575l-.67-.637a.166.166 0 0 1-.003-.239.174.174 0 0 1 .099-.05l.924-.13a.664.664 0 0 0 .5-.356l.414-.818a.175.175 0 0 1 .31 0l.413.818a.664.664 0 0 0 .5.356l.925.13a.168.168 0 1 1 .096.288l-.67.638a.64.64 0 0 0-.19.575l.158.9a.17.17 0 0 1-.141.195.176.176 0 0 1-.11-.017L8.16 8.85a.679.679 0 0 0-.618 0zm21.97-1.879h4.376c0 .45-.02.859-.057 1.226a4.346 4.346 0 0 1-.225 1.024 4.167 4.167 0 0 1-.641 1.181c-.27.338-.589.623-.956.856a4.49 4.49 0 0 1-1.193.517c-.435.12-.892.18-1.372.18-.66 0-1.264-.109-1.811-.326a4.127 4.127 0 0 1-1.395-.912 4.226 4.226 0 0 1-.912-1.417A4.985 4.985 0 0 1 25 7.466c0-.66.105-1.264.315-1.811a4.082 4.082 0 0 1 .911-1.418c.398-.39.874-.693 1.429-.91A5.049 5.049 0 0 1 29.511 3c.885 0 1.662.191 2.329.574.668.382 1.196.975 1.586 1.777l-2.092.867c-.195-.465-.45-.8-.765-1.002a1.879 1.879 0 0 0-1.058-.304c-.33 0-.63.064-.9.192-.27.12-.502.296-.697.529a2.613 2.613 0 0 0-.45.82 3.477 3.477 0 0 0-.158 1.08c0 .36.045.694.135 1.002.098.307.24.574.428.799.187.225.42.4.697.528.278.12.6.18.968.18.217 0 .427-.022.63-.067.202-.053.382-.131.54-.236.165-.113.3-.255.405-.428.105-.172.176-.382.213-.63h-1.81v-1.71zm8.255.506c0 .338.064.65.192.934.127.285.3.533.517.743.218.21.469.375.754.495.292.112.6.168.922.168.323 0 .627-.056.912-.168.292-.12.547-.285.765-.495a2.26 2.26 0 0 0 .72-1.676 2.26 2.26 0 0 0-.72-1.677 2.252 2.252 0 0 0-.765-.484 2.324 2.324 0 0 0-.912-.18c-.322 0-.63.06-.922.18a2.279 2.279 0 0 0-.754.484c-.217.21-.39.458-.517.743a2.26 2.26 0 0 0-.192.934zm-2.306 0c0-.63.116-1.215.349-1.755a4.378 4.378 0 0 1 .967-1.428c.413-.405.904-.72 1.474-.945A5.046 5.046 0 0 1 40.152 3c.683 0 1.313.116 1.89.349.578.225 1.073.54 1.485.945a4.39 4.39 0 0 1 1.328 3.184 4.326 4.326 0 0 1-1.328 3.184 4.48 4.48 0 0 1-1.485.955 5.16 5.16 0 0 1-1.89.338c-.69 0-1.323-.113-1.9-.338a4.508 4.508 0 0 1-1.475-.956 4.411 4.411 0 0 1-.967-1.417 4.471 4.471 0 0 1-.349-1.766zm13.273 0c0 .338.064.65.191.934.128.285.3.533.518.743.217.21.468.375.754.495.292.112.6.168.922.168.322 0 .626-.056.911-.168.293-.12.548-.285.765-.495a2.26 2.26 0 0 0 .72-1.676 2.26 2.26 0 0 0-.72-1.677 2.252 2.252 0 0 0-.765-.484 2.324 2.324 0 0 0-.911-.18c-.322 0-.63.06-.922.18a2.279 2.279 0 0 0-.754.484c-.218.21-.39.458-.518.743a2.26 2.26 0 0 0-.191.934zm-2.306 0c0-.63.116-1.215.349-1.755a4.378 4.378 0 0 1 .967-1.428c.413-.405.904-.72 1.474-.945A5.046 5.046 0 0 1 51.119 3c.682 0 1.313.116 1.89.349.578.225 1.072.54 1.485.945a4.39 4.39 0 0 1 1.328 3.184c0 .63-.117 1.218-.35 1.766a4.326 4.326 0 0 1-.978 1.417 4.48 4.48 0 0 1-1.485.956 5.16 5.16 0 0 1-1.89.338c-.69 0-1.324-.113-1.901-.338a4.508 4.508 0 0 1-1.474-.956 4.411 4.411 0 0 1-.968-1.417 4.471 4.471 0 0 1-.348-1.766zm13.554 2.374h.506c.383 0 .724-.06 1.024-.18a2.128 2.128 0 0 0 1.226-1.237c.112-.293.169-.611.169-.956a2.61 2.61 0 0 0-.169-.946 2.135 2.135 0 0 0-.484-.753 2.128 2.128 0 0 0-.753-.495c-.3-.12-.638-.18-1.013-.18h-.506V9.85zm-2.205-6.615h3.262a3.81 3.81 0 0 1 1.62.349c.51.232.953.544 1.328.934.382.382.682.832.9 1.35.217.51.326 1.046.326 1.609 0 .555-.109 1.09-.326 1.608-.21.51-.507.96-.889 1.35a4.29 4.29 0 0 1-1.328.934 3.837 3.837 0 0 1-1.63.349h-3.263V3.236zM73.774 7.13h.731c.81 0 1.216-.353 1.216-1.058 0-.705-.406-1.057-1.216-1.057h-.731v2.115zm0 4.59h-2.205V3.236h3.51c.953 0 1.68.248 2.183.743.51.495.765 1.192.765 2.092 0 .9-.255 1.598-.765 2.093-.503.495-1.23.742-2.183.742h-1.305v2.813zm10.122-3.15l-.99-2.824-.99 2.824h1.98zm.585 1.676h-3.15l-.506 1.474h-2.351l3.229-8.483h2.407l3.229 8.483h-2.351l-.507-1.474zm6.59-3.217h.417c.435 0 .768-.09 1-.27.233-.18.35-.44.35-.777s-.117-.596-.35-.776c-.232-.18-.565-.27-1-.27h-.417v2.093zm4.849 4.69h-2.745L91.07 8.457v3.263h-2.205V3.236h3.432c.472 0 .885.071 1.237.214.353.135.64.322.866.563.233.24.405.517.518.832.12.315.18.652.18 1.013 0 .645-.158 1.17-.473 1.575-.307.397-.765.667-1.372.81l2.666 3.476zm4.713-6.614v6.615h-2.205V5.104h-1.811V3.236h5.828v1.868h-1.812zm5.952 2.542l-3.094-4.41h2.632l1.575 2.318 1.564-2.318h2.633l-3.105 4.41v4.073h-2.205V7.646z" fill="#fff"/></svg>
